X: 289
T: Xiao ganhui
%%abc-version 2.0
%%abcx-abcm2ps-target-version 5.9.1 (29 Sep 2008)
%%abc-creator hum2abc beta
%%abcx-conversion-date 2013/10/02 07:52:29
%%abc-edited-by Helmut Schaffrath
%%humdrum-veritas 2805279418
%%humdrum-veritas-data 1362287541
%%continueall 1
%%barnumbers 0
L: 1/8
M: 2/4
K: F
z A c f [I:setbarnb 1]| 
d> c A/ c/ G- | 
G A A f | 
A> G F F | 
zc2c | 
c F G c | 
F A G/ A/ G/ F/ | 
C4 | 
G Gc2 | 
B Bc2 | 
F> A A A | 
G A c c | 
z f B A | 
G> A c F | 
d c B3/ A/ | 
G FC2 |]  



